X:1
T:The Hope of the Ages
T:The Hope of the Ages
T:E. Grace Updegraff
T:Russell Kelso Carter, 1891
T:Public Domain Courtesy of the Cyber Hymnal™
T:Public Domain Courtesy of the Cyber Hymnal™
C:E. Grace Updegraff
Z:Public Domain
Z:Courtesy of the Cyber Hymnal™
%%score ( 1 2 ) ( 3 4 )
L:1/8
Q:1/4=110
M:4/4
K:Eb
V:1 treble 
V:2 treble 
V:3 bass 
V:4 bass 
V:1
 (3(B,C)D | E3 E G2 B2 | [Ge]4 [GB]2 [EG]>[EG] | [EA]2 [EG]2 [DF]2 [B,E]2 | %4
w: 1.~Je- * sus|comes, He comes in|glo- ry, E- choes|through the ag- es|
w: 2.~Je- * sus|comes, the dead are|wak- ing, Earth with|mor- tal pangs is|
w: 3.~Je- * sus|comes, in clouds de-|scend- ing, Sins re-|strain- ing, so- row|
w: 4.~Je- * sus|comes, all things re-|stor- ing, Cry a-|loud, His grace im-|
 ([B,D]2 [=A,C]2) B,2 (3(B,D)F | [DB]3 [DB] [Fc]2 [Fc]2 | [Fd]4 [Ee]2 [Ge][Ec] | %7
w: hoar- * y Bless- * èd|hope and thrill- ing|sto- ry, Hal- le-|
w: quak- * ing; Stars * are|fall- ing, hea- vens|shak- ing, Hal- le-|
w: end- * ing, Brok- * en|ties for- ev- er|mend- ing, Hal- le-|
w: plor- * ing, Bow * the|knee, the King a-|dor- ing, Hal- le-|
 [DB]3 [DB] [C=A]2 [Ec]2 | B4- !fermata![FB]2 ||"^Refrain" B>B | (z2 B>)B c>B x9/2 | %11
w: lu- jah! Je- sus|comes! *|||
w: lu- jah! Je- sus|comes! *|||
w: lu- jah! Je- sus|comes! Hope|* of|* all the ag-|
w: lu- jah! Je- sus|comes! *|||
 (z2 [Ge]2) e>e x2 | (z2 e>)c B>G x13/2 | (z2 B,>)B, x8 | D>D F>F A>A D>D | %15
w: ||||
w: ||||
w: * es past,|* King of kings,|* He|comes at last. Up, ye saints of God|
w: ||||
 E>E G>G B>B [^Fc]>[Fc] | [GB]3 [Ge] [Fe]2 [Ad]2 | [Ge]6 |] %18
w: |||
w: |||
w: * a- wak- ing! See the morn- ing|light is break- ing!|Hal-|
w: |||
V:2
 x2 | E3 E G2 B2 | x8 | x8 | x4 B,2 x2 | x8 | x8 | x8 | D2 E2 x2 || B>B | (B4- E>E E2) B<cB/ | %11
 (e4- G>G e>)e | (e6- A>A A2) c<BG/ | F6 (D>D D2) B,>B, | D>D F>F A>A D>D | E>E G>G B>B x2 | x8 | %17
 x6 |] %18
V:3
 (3(B,,C,)D, | E,3 E, G,2 B,2 | [E,B,]4 [E,E]2 [E,B,]>[E,B,] | [E,C]2 [E,B,]2 [E,A,]2 [E,G,]2 | %4
 F,2 E,2 [B,,D,]2 (3(B,,D,)F, | [F,,F,]3 [F,,F,] [F,=A,]2 [F,A,]2 | (B,2 A,2) [E,G,]2 [C,C][C,G,] | %7
 [F,,F,]3 [F,,F,] [F,,F,]2 [F,,F,]2 | (F,2 G,2 !fermata![B,,A,]2) || z2 | %10
 z2 ([E,G,]>[E,G,] [E,G,]2) z2 x5/2 | z2 ([E,B,]>[E,B,] [E,B,]2) z2 | %12
 z2 ([A,C]>[A,C] [A,C]2) z2 x9/2 | z2 ([B,,B,]>[B,,B,] [B,,B,]2) B,,>B,, x4 | %14
 D,>D, F,>F, A,>A, D,>D, | E,>E, G,>G, B,>B, [=A,E]>[A,E] | [B,E]3 [B,E] [B,,B,]2 [B,,B,]2 | %17
 [E,B,]6 |] %18
V:4
 x2 | E,3 E, G,2 B,2 | x8 | x8 | (F,2 E,2) x4 | x8 | B,,4 x4 | x8 | B,,4- x2 || x2 | x21/2 | x8 | %12
 x25/2 | x6 B,,>B,, x4 | D,>D, F,>F, A,>A, D,>D, | E,>E, G,>G, B,>B, x2 | x8 | x6 |] %18

